X: 10713
T: Dowser's Favourite
R: reel
M: 4/4
K: Gmajor
Bc|dgeB dBAB|G2BG ED~D2|D2GB cBAG|FGAB cABc|
dgeB dBAB|G2BG ED~D2|ED~D2 GBdB|cAFA G2:|
Bc|dB~B2 gdBc|cBcd gdBd|D2GB cBAG|FGAB cABc|
dB~B2 gdBc|cBcd gdBd|GDGB GBdB|cAFA G2:|

